build/img/mail.svg

<svg width="24" height="24" viewBox="0 0 24 24" fill="none" xmlns="http://www.w3.org/2000/svg">
<path fill-rule="evenodd" clip-rule="evenodd" d="M5.75286 8.53462C6.01128 8.21091 6.48319 8.15797 6.80691 8.41639L11.1062 11.8484C11.6403 12.2655 12.3864 12.2658 12.9209 11.8493L17.1821 8.41835C17.5048 8.15858 17.9769 8.20955 18.2367 8.53218C18.4965 8.85482 18.4455 9.32695 18.1228 9.58672L13.8498 13.0271C12.7709 13.873 11.2572 13.8729 10.1783 13.027L10.1731 13.023L5.87109 9.58867C5.54737 9.33025 5.49444 8.85834 5.75286 8.53462Z" fill="#36373C"/>
<path fill-rule="evenodd" clip-rule="evenodd" d="M7.27264 4.19141C4.84383 4.19141 3.13477 6.14975 3.13477 8.73552V15.2634C3.13477 17.8492 4.84383 19.8075 7.27264 19.8075H16.6962C17.8475 19.7935 18.9441 19.3063 19.7307 18.4575C20.5184 17.6075 20.9263 16.4692 20.858 15.3074C20.8572 15.2927 20.8567 15.2781 20.8567 15.2634V8.73552C20.8567 8.72085 20.8572 8.70618 20.858 8.69154C20.9263 7.52976 20.5184 6.39138 19.7307 5.5414C18.9441 4.69259 17.8475 4.20543 16.6962 4.19141H7.27264ZM1.63477 8.73552C1.63477 5.48396 3.86163 2.69141 7.27264 2.69141H16.709C18.275 2.70897 19.7645 3.37107 20.8309 4.52182C21.892 5.66683 22.4423 7.19624 22.3567 8.75677V15.2422C22.4423 16.8027 21.892 18.3321 20.8309 19.4771C19.7645 20.6279 18.275 21.2899 16.709 21.3075L16.7006 21.3076L7.27264 21.3075C3.86163 21.3075 1.63477 18.515 1.63477 15.2634V8.73552Z" fill="#36373C"/>
</svg>

<svg width="24" height="24" fill="none" xmlns="http://www.w3.org/2000/svg"><path fill-rule="evenodd" clip-rule="evenodd" d="M5.753 8.535a.75.75 0 0 1 1.054-.119l4.3 3.432c.533.417 1.28.418 1.814.001l4.261-3.43a.75.75 0 0 1 .94 1.168l-4.272 3.44a2.973 2.973 0 0 1-3.672 0l-.005-.004-4.302-3.434a.75.75 0 0 1-.118-1.054Z" fill="#36373C"/><path fill-rule="evenodd" clip-rule="evenodd" d="M7.273 4.191c-2.43 0-4.138 1.959-4.138 4.545v6.527c0 2.586 1.709 4.545 4.138 4.545h9.423a4.207 4.207 0 0 0 3.035-1.35 4.267 4.267 0 0 0 1.126-3.195V8.736l.001-.044a4.267 4.267 0 0 0-1.127-3.15 4.207 4.207 0 0 0-3.035-1.35H7.273ZM1.635 8.736c0-3.252 2.227-6.045 5.638-6.045h9.436a5.707 5.707 0 0 1 4.122 1.83 5.767 5.767 0 0 1 1.526 4.236v6.485a5.766 5.766 0 0 1-1.526 4.235 5.707 5.707 0 0 1-4.122 1.83H7.273c-3.411 0-5.638-2.792-5.638-6.044V8.736Z" fill="#36373C"/></svg>
